!!!OTL: ES WOLLT EIN FRAU ZUM WEINE GAHN
!!!ARE: Europa, Mitteleuropa, Deutschland
!!!SCT: E0899
!!!YEM: Copyright 1995, estate of Helmut Schaffrath.
**kern
*ICvox
*Ivox
*M3/4
*k[f#]
*G:
{4g
=1
2g
4g
=2
2a
4b
=3
2cc
4cc
=4
2a}
{4cc
=5
4b
4a
4b
=6
4g
4g}
{4g
=7
2dd
4dd
=8
2dd
4dd
=9
2cc
4b
=10
2a}
{4dd
=11
2a
4a
=12
2a
4b
=13
4cc
4b
4a
=14
2g}
{4g
=15
4b
4cc
4dd
=16
4cc
2a
=17
2g}
==
!!!AGN: Ehestands - Lied
!!!ONB: ESAC (Essen Associative Code) Database: ERK2
!!!AMT: simple triple
!!!AIN: vox
!!!EED: Helmut Schaffrath
!!!EEV: 1.0
*-
